X: 4
T: Loopty Lou
T: Loopy Lou
M: 12/8
L: 1/8
R: slide
K: G Major
|: deg d2 B d3- d3 | deg d2 B A3- A3 | 
deg d2 B d2 B d2 e |[1 d2 d cBA G3- G3 :|[2 d2 c B2 A G3- G3 ||
G2 G d2 B d3- d3 | G2 G d2 B A3- A3 |
G2 G d2 B d2 e ABc |[1 d2 d cBA G3- G3 :|[2 d2 c cBA G3- G3 ||
